packages/foundations/assets/icons/functional/images/editing/pen_20.svg

<svg width="20" height="20" viewBox="0 0 20 20" fill="none" xmlns="http://www.w3.org/2000/svg">
<g clip-path="url(#clip0_83_265)">
<path fill-rule="evenodd" clip-rule="evenodd" d="M14.285 2.0306C14.772 2.0306 15.258 2.1926 15.615 2.5176L17.433 4.3356C17.79 4.6926 17.985 5.2766 17.985 5.8286C17.9849 6.36655 17.7887 6.88602 17.433 7.2896L8.247 16.4126C7.923 16.7046 7.663 16.8026 7.144 16.9326L3.215 17.9366C3.118 17.9696 3.02 17.9696 2.923 17.9696C2.663 17.9696 2.436 17.8726 2.306 17.7096C2.12644 17.5275 2.02247 17.2842 2.015 17.0286V16.8666L2.989 12.9386C3.184 12.2246 3.281 12.0946 3.606 11.7696L12.759 2.6476C12.9598 2.44885 13.1982 2.29197 13.4601 2.18605C13.7221 2.08014 14.0025 2.0273 14.285 2.0306ZM11.428 6.8356L5.586 12.5806L7.371 14.3986L13.214 8.6196L11.428 6.8356ZM14.252 3.9786L12.825 5.4066L14.643 7.2246L16.071 5.7966L14.252 3.9786Z" fill="#1A1C1F"/>
</g>
<defs>
<clipPath id="clip0_83_265">
<rect width="20" height="20" fill="white"/>
</clipPath>
</defs>
</svg>

<svg xmlns="http://www.w3.org/2000/svg" width="20" height="20" fill="none"><g clip-path="url(#a)"><path fill="#1A1C1F" fill-rule="evenodd" d="M14.285 2.03c.487 0 .973.163 1.33.488l1.818 1.818c.357.357.552.94.552 1.493a2.2 2.2 0 0 1-.552 1.46l-9.186 9.124c-.324.292-.584.39-1.103.52l-3.929 1.004c-.097.033-.195.033-.292.033-.26 0-.487-.097-.617-.26a1 1 0 0 1-.291-.681v-.162l.974-3.928c.195-.714.292-.844.617-1.17l9.153-9.121a2.13 2.13 0 0 1 1.526-.617m-2.857 4.806L5.586 12.58l1.785 1.818 5.843-5.78zm2.824-2.857-1.427 1.428 1.818 1.818 1.428-1.428z" clip-rule="evenodd"/></g><defs><clipPath id="a"><path fill="#fff" d="M0 0h20v20H0z"/></clipPath></defs></svg>
